packages/ui-solid/icons/archive_28.svg

<svg width="28" height="28" viewBox="0 0 28 28" fill="none" xmlns="http://www.w3.org/2000/svg">
<path fill-rule="evenodd" clip-rule="evenodd" d="M9.71768 4.85046C9.13498 4.85046 8.57902 5.09503 8.18527 5.52457L7.28798 6.50344H20.7001L19.8028 5.52457C19.409 5.09503 18.8531 4.85046 18.2704 4.85046H9.71768ZM22.2928 8.30177C22.2745 8.30288 22.256 8.30344 22.2375 8.30344H5.69428C5.50083 8.62488 5.39659 8.99509 5.39659 9.3754V19.71C5.39659 21.4065 6.77186 22.7818 8.46835 22.7818H19.5197C21.2162 22.7818 22.5915 21.4065 22.5915 19.71V9.3754C22.5915 8.99443 22.4869 8.6236 22.2928 8.30177ZM4.54431 6.83494C3.93386 7.53923 3.59659 8.44098 3.59659 9.3754V19.71C3.59659 22.4006 5.77775 24.5818 8.46835 24.5818H19.5197C22.2103 24.5818 24.3915 22.4006 24.3915 19.71V9.3754C24.3915 8.40496 24.0277 7.46976 23.3719 6.75439L21.1297 4.30827C20.395 3.50679 19.3576 3.05046 18.2704 3.05046H9.71768C8.63043 3.05046 7.59308 3.50679 6.8584 4.30827L4.61612 6.75439C4.60769 6.76359 4.59931 6.77282 4.59098 6.78208C4.57475 6.79908 4.55918 6.81672 4.54431 6.83494ZM13.994 11.0496C14.4911 11.0496 14.894 11.4526 14.894 11.9496V17.3123L16.7246 15.5649C17.0842 15.2217 17.6539 15.2349 17.9971 15.5944C18.3403 15.954 18.327 16.5237 17.9675 16.8669L14.6155 20.0666C14.2677 20.3985 13.7204 20.3985 13.3726 20.0666L10.0206 16.8669C9.66101 16.5237 9.64776 15.954 9.99097 15.5944C10.3342 15.2349 10.9039 15.2217 11.2634 15.5649L13.094 17.3123V11.9496C13.094 11.4526 13.497 11.0496 13.994 11.0496Z" fill="#007AFF"/>
</svg>

<svg xmlns="http://www.w3.org/2000/svg" width="28" height="28" fill="none"><path fill="currentColor" fill-rule="evenodd" d="M9.718 4.85a2.08 2.08 0 0 0-1.533.675l-.897.978H20.7l-.897-.978a2.08 2.08 0 0 0-1.533-.675zm12.575 3.452-.055.001H5.694a2.1 2.1 0 0 0-.297 1.072V19.71a3.07 3.07 0 0 0 3.071 3.072H19.52a3.07 3.07 0 0 0 3.072-3.072V9.375c0-.38-.105-.751-.3-1.073M4.544 6.835a3.88 3.88 0 0 0-.947 2.54V19.71a4.87 4.87 0 0 0 4.871 4.872H19.52a4.87 4.87 0 0 0 4.872-4.872V9.375c0-.97-.364-1.905-1.02-2.62L21.13 4.307a3.88 3.88 0 0 0-2.86-1.258H9.718a3.88 3.88 0 0 0-2.86 1.258L4.616 6.754zm9.45 4.215a.9.9 0 0 1 .9.9v5.362l1.83-1.747a.9.9 0 0 1 1.244 1.302l-3.352 3.2a.9.9 0 0 1-1.243 0l-3.352-3.2a.9.9 0 1 1 1.242-1.302l1.831 1.747V11.95a.9.9 0 0 1 .9-.9" clip-rule="evenodd"/></svg>
